src/Icon/svgs/sheild.svg

<svg width="24" height="24" viewBox="0 0 24 24" fill="none" xmlns="http://www.w3.org/2000/svg">
<path fill-rule="evenodd" clip-rule="evenodd" d="M12 18C8.6925 18 6 15.3075 6 12C6 8.6925 8.6925 6 12 6C15.3075 6 18 8.6925 18 12C18 15.3075 15.3075 18 12 18ZM12.0735 1.5H11.9265C9.729 3.3375 6.549 4.5 3 4.5V12C3 19.524 12 22.5 12 22.5C12 22.5 21 19.5 21 12V4.5C17.451 4.5 14.271 3.3375 12.0735 1.5ZM12.4995 12.2535L12.75 14.25H11.25L11.5005 12.2535C11.1315 12.0675 10.875 11.691 10.875 11.25C10.875 10.629 11.379 10.125 12 10.125C12.621 10.125 13.125 10.629 13.125 11.25C13.125 11.691 12.8685 12.0675 12.4995 12.2535ZM12 7.5C9.5145 7.5 7.5 9.5145 7.5 12C7.5 14.4855 9.5145 16.5 12 16.5C14.4855 16.5 16.5 14.4855 16.5 12C16.5 9.5145 14.4855 7.5 12 7.5Z" fill="#1B1C1D"/>
</svg>

<svg xmlns="http://www.w3.org/2000/svg" width="24" height="24" fill="none"><path fill-rule="evenodd" d="M12 18a6.01 6.01 0 0 1-6-6 6.01 6.01 0 0 1 6-6 6.01 6.01 0 0 1 6 6 6.01 6.01 0 0 1-6 6zm.073-16.5h-.147C9.729 3.338 6.549 4.5 3 4.5V12c0 7.524 9 10.5 9 10.5s9-3 9-10.5V4.5c-3.549 0-6.729-1.162-8.926-3zm.426 10.754l.251 1.996h-1.5l.251-1.996c-.369-.186-.626-.562-.626-1.004 0-.621.504-1.125 1.125-1.125s1.125.504 1.125 1.125c0 .441-.257.818-.626 1.004zM12 7.5a4.5 4.5 0 1 0 0 9 4.5 4.5 0 1 0 0-9z" fill="#1B1C1D"/></svg>
